svg/u26e9.svg

<svg viewBox="0 0 128 128" xmlns="http://www.w3.org/2000/svg">
  <path d="M53.74,49.78L13,53.92c0,0,0.22,2.92,1.06,3.59c0.8,0.64,25.28,0.3,49.72,0.4 c24.45,0.1,48.69,0.56,49.25,0.32c1.12-0.48,1.12-4.46,1.12-4.46L53.74,49.78z" fill="#8A1E0C"/>
  <path d="M66.48,27.04L9.67,25.6c0,0,1.24,2.75,2.87,3.66c2.35,1.31,16.69,4,51.83,4.13s47.86-1.8,50.93-3.05 c2.61-1.07,5.47-7.09,5.47-7.09L66.48,27.04z" fill="#8A1E0C"/>
  <polygon points="30.08,36.33 30.08,30.2 39.27,30.76 39.27,36.25 " fill="#8A1E0C"/>
  <polygon points="90.78,30.96 90.78,36.97 100.57,36.58 100.57,30.44 " fill="#8A1E0C"/>
  <path d="M9.69,23.24c0,0-2.91-1.53-6.2-7.08c-2.29-3.86-2.68-7.46-1.74-8s9.69,4.86,25.85,7.27 c11.62,1.73,24.59,2.79,36.78,2.9c12.98,0.12,25.73-0.61,37.79-2.9c16.29-3.1,22.08-6.46,23.69-5.92c1.62,0.54-0.49,5.52-1.66,8.01 c-0.8,1.69-4.25,7.96-6.82,8.41c-1.85,0.33-89.79-0.4-89.79-0.4L9.69,23.24z" fill="#474C4F"/>
  <polygon points="58.55,28.49 58.55,50.43 69.32,48.95 69.32,28.49 " fill="#EB2901"/>
  <path d="M90.77,35.05h9.8l0,75.59l-9.93,1.32C90.64,111.97,90.77,34.98,90.77,35.05z" fill="#EB2901"/>
  <polygon points="30.08,34.98 29.91,111.71 39.27,110.78 39.27,35.05 " fill="#EB2901"/>
  <path d="M113.81,45.9c-0.52-0.72-2.17-0.62-2.17-0.62s-1.88-0.02-5.12-0.06c0.01-1.79-0.04-4.11-0.35-4.48 c-0.52-0.62-20.44-0.41-21.16,0.21c-0.41,0.35-0.49,2.37-0.48,4.04c-12.32-0.12-26.96-0.26-39.74-0.34c0-1.73-0.05-3.82-0.35-4.12 c-0.52-0.52-18.99-0.83-19.71-0.31c-0.51,0.37-0.61,2.91-0.62,4.36c-6.23,0.01-10.24,0.06-10.53,0.18 c-1.45,0.62-0.62,9.19-0.62,9.19l101.15,0.72C114.12,54.68,114.33,46.63,113.81,45.9z" fill="#EB2901"/>
  <path d="M6.9,17.76c-0.49,0.62-0.26,2.06,0.95,4.77c0.48,1.07,1.87,3.52,2.38,4.13c0,0,13.42,3.4,53.9,3.15 s54.49-2.79,54.49-2.79s4.1-5.75,3.35-5.94c-0.43-0.11-21.81,4.41-58.09,4.04S6.9,17.76,6.9,17.76z" fill="#EB2901"/>
  <path d="M27.12,108.64c-0.33,0.33-0.66,10.62-0.09,11.09c0.56,0.47,14.13,0.58,14.6,0.11 c0.47-0.47,0.38-10.37,0.1-10.94S27.59,108.17,27.12,108.64z" fill="#474C4F"/>
  <path d="M88.1,109.86c-0.5,0.87-0.5,10.34-0.03,11c0.47,0.66,14.59,0.47,14.97,0 c0.38-0.47,0.28-10.71,0-11.09S88.48,109.21,88.1,109.86z" fill="#474C4F"/>
</svg>

<svg viewBox="0 0 128 128" xmlns="http://www.w3.org/2000/svg">
  <defs/>
  <path d="M53.74,49.78 L13,53.92 C13,53.92 13.22,56.84 14.06,57.51 C14.86,58.15 39.34,57.81 63.78,57.91 C88.23,58.01 112.47,58.47 113.03,58.23 C114.15,57.75 114.15,53.77 114.15,53.77 L53.74,49.78 Z" fill="#8A1E0C"/>
  <path d="M66.48,27.04 L9.67,25.6 C9.67,25.6 10.91,28.35 12.54,29.26 C14.89,30.57 29.23,33.26 64.37,33.39 C99.51,33.52 112.23,31.59 115.3,30.34 C117.91,29.27 120.77,23.25 120.77,23.25 L66.48,27.04 Z" fill="#8A1E0C"/>
  <path d="M30.08,36.33 L30.08,30.2 L39.27,30.76 L39.27,36.25 Z" fill="#8A1E0C"/>
  <path d="M90.78,30.96 L90.78,36.97 L100.57,36.58 L100.57,30.44 Z" fill="#8A1E0C"/>
  <path d="M9.69,23.24 C9.69,23.24 6.78,21.71 3.49,16.16 C1.2,12.3 0.81,8.7 1.75,8.16 C2.69,7.62 11.44,13.02 27.6,15.43 C39.22,17.16 52.19,18.22 64.38,18.33 C77.36,18.45 90.11,17.72 102.17,15.43 C118.46,12.33 124.25,8.97 125.86,9.51 C127.48,10.05 125.37,15.03 124.2,17.52 C123.4,19.21 119.95,25.48 117.38,25.93 C115.53,26.26 27.59,25.53 27.59,25.53 L9.69,23.24 Z" fill="#474C4F"/>
  <path d="M58.55,28.49 L58.55,50.43 L69.32,48.95 L69.32,28.49 Z" fill="#EB2901"/>
  <path d="M90.77,35.05 L100.57,35.05 L100.57,110.64 L90.64,111.96 C90.64,111.97 90.77,34.98 90.77,35.05 Z" fill="#EB2901"/>
  <path d="M30.08,34.98 L29.91,111.71 L39.27,110.78 L39.27,35.05 Z" fill="#EB2901"/>
  <path d="M113.81,45.9 C113.29,45.18 111.64,45.28 111.64,45.28 C111.64,45.28 109.76,45.26 106.52,45.22 C106.53,43.43 106.48,41.11 106.17,40.74 C105.65,40.12 85.73,40.33 85.01,40.95 C84.6,41.3 84.52,43.32 84.53,44.99 C72.21,44.87 57.57,44.73 44.79,44.65 C44.79,42.92 44.74,40.83 44.44,40.53 C43.92,40.01 25.45,39.7 24.73,40.22 C24.22,40.59 24.12,43.13 24.11,44.58 C17.88,44.59 13.87,44.64 13.58,44.76 C12.13,45.38 12.96,53.95 12.96,53.95 L114.11,54.67 C114.12,54.68 114.33,46.63 113.81,45.9 Z" fill="#EB2901"/>
  <path d="M6.9,17.76 C6.41,18.38 6.64,19.82 7.85,22.53 C8.33,23.6 9.72,26.05 10.23,26.66 C10.23,26.66 23.65,30.06 64.13,29.81 C104.61,29.56 118.62,27.02 118.62,27.02 C118.62,27.02 122.72,21.27 121.97,21.08 C121.54,20.97 100.16,25.49 63.88,25.12 C27.6,24.75 6.9,17.76 6.9,17.76 Z" fill="#EB2901"/>
  <path d="M27.12,108.64 C26.79,108.97 26.46,119.26 27.03,119.73 C27.59,120.2 41.16,120.31 41.63,119.84 C42.1,119.37 42.01,109.47 41.73,108.9 C41.45,108.33 27.59,108.17 27.12,108.64 Z" fill="#474C4F"/>
  <path d="M88.1,109.86 C87.6,110.73 87.6,120.2 88.07,120.86 C88.54,121.52 102.66,121.33 103.04,120.86 C103.42,120.39 103.32,110.15 103.04,109.77 C102.76,109.39 88.48,109.21 88.1,109.86 Z" fill="#474C4F"/>
</svg>
